X:479
T: Tiaodan Haozi
N: C0000
O: Asien, Ostasien, China, Jiangsu
S: Haozi - Artikel, Essen 1991]
R: Haozi zum Tragen: Wechselgesang!]
M: 2/4
L: 1/16
K: A
A2ABA2B2 | c2e2c2B2
c2c2B2cB | A8
c2cBA2B2 | A2B2A2B2
B2A2F2EF | A8
A2ABA2B2 | c2c2B2cB | A8
c2cBA2B2 | A2B2A2B2
B2A2F2EF | A8

